X:136
T:Liza Jane
R:reel
M:C|
K:A
((3efg)| "A"a2f2 e3e| fecB A2((3efg)| a2f2 e2c2| "F#m"f3 gf2((3efg)|
"A"a2f2 e3e|"E7" fecB"A" A4| "D"cBAF "E7"E2F2| "A"A6 :|
|:A2| "A"B c2Bc3A| B2A4A2| Bc2B cBA2| "F#m"F6 E2|
"D"FA3 B3A|"E7" Bc3 B3A| "D"cBAF "E7"E2F2| "A"A6 :|
